X:84
T:Prince Frederick’s March. JJo.084
S:J.Jones MS,1801,N.Shrops.
N:The G minim in bar 2 could be an F. It is also dotted in MS.
A:N Shropshire
Z:Neil Brookes 2006
M:4/4
L:1/8
Q:1/4=140
K:C
c2c>cc2 e>c|d2G>GG4|d2d>dd2 e>f|e>dc2z def|!
g2e>dc2e2|d2G>GG2d2|e2d>c g2f>e|d8::!
d2d>dd2 e>f|e2d>cd2G2|g2g>g g>fe>f|g2f>e”cr in MS”d3G|!
c2c>cc2 e>c|d2d>dd2f>d|e>dc>dTd3c|c8:|

